!!!OTL: WIE STEHT IHR HIER UND SEHT MICH AN
!!!ARE: Europa, Mitteleuropa, Deutschland
!!!SCT: E0934
!!!YEM: Copyright 1995, estate of Helmut Schaffrath.
**kern
*ICvox
*Ivox
*M4/4
*k[b-]
*F:
{4f
=1
2a
2b-
=2
2.cc
4b-
=3
2a
2g
=4
2.f}
{4f
=5
2a
2b-
=6
2.cc
4b-
=7
2a
2g
=8
2.f}
{4b-
=9
2a
2g
=10
2d
2c
=11
4a
4b-
4cc
4b-
=12
2.g}
{4b-
=13
2a
2g
=14
2d
2c
=15
4a
4b-
4cc
4b-
=16
2.g}
==
!!!AGN: Tanz - Lied, Reigen, geistlich
!!!ONB: ESAC (Essen Associative Code) Database: ERK2
!!!AMT: simple quadruple
!!!AIN: vox
!!!EED: Helmut Schaffrath
!!!EEV: 1.0
*-
